src/assets/svg/logo.svg

<svg style="position: absolute; width: 0; height: 0; overflow: hidden;"
     version="1.1" xmlns="http://www.w3.org/2000/svg"
     xmlns:xlink="http://www.w3.org/1999/xlink">
  <symbol id="logo">
    <title>logo</title>
    <path
      d="M9.12846923,14.8313699 C9.12846923,14.0295708 8.8467,13.2621651 8.28316154,12.6903726 C7.74737308,12.125029 7.03014231,11.8176368 6.26595,11.8176368 C5.49748846,11.8176368 4.78025769,12.125029 4.21885385,12.6903726 C3.67879615,13.2621651 3.37354615,14.0295708 3.37354615,14.8313699 C3.37354615,15.6267204 3.67879615,16.3747796 4.21885385,16.9659185 C4.78025769,17.5355613 5.49748846,17.8429535 6.26595,17.8429535 C7.03014231,17.8429535 7.74737308,17.5355613 8.28316154,16.9659185 C8.8467,16.3747796 9.12846923,15.6267204 9.12846923,14.8313699 L9.12846923,14.8313699 Z M12.3496038,9.29616105 L12.3496038,20.392374 L9.63650769,20.392374 L9.63650769,19.3089778 C8.61402692,20.1860128 7.28416154,20.6997662 5.85610385,20.6997662 C2.60721923,20.6997662 0.000853846154,18.0751098 0.000853846154,14.8313699 C0.000853846154,11.5618349 2.60721923,8.96082412 5.85610385,8.96082412 C7.28416154,8.96082412 8.61402692,9.47457749 9.63650769,10.3473133 L9.89052692,9.29616105 L12.3496038,9.29616105 Z"
      id="Fill-1" fill="#FFFFFF"></path>
    <g id="Group-5" transform="translate(13.354490, 0.508829)">
      <mask id="mask-2" fill="white">
        <use xlink:href="#path-1"></use>
      </mask>
      <g id="Clip-4"></g>
      <path
        d="M8.75051928,4.25061051 C8.56907697,4.02060377 8.13788466,3.63367655 7.5465962,3.63367655 C5.75778851,3.63367655 5.62757697,5.97888544 5.62757697,6.699 L5.62757697,8.78625741 L8.92769236,8.78625741 L8.92769236,11.7999906 L5.62757697,11.7999906 L5.62757697,19.8824704 L2.56440389,19.8824704 L2.56440389,11.7999906 L0.463942355,11.7999906 L0.463942355,8.78625741 L2.56440389,8.78625741 L2.56440389,6.699 C2.56440389,4.89548922 3.01907697,3.37787466 3.91775005,2.26868329 C4.81215389,1.16379111 6.11640389,0.544707547 7.5465962,0.544707547 C8.87646159,0.544707547 10.1316154,1.13799596 11.07725,2.22139218 L8.75051928,4.25061051 Z"
        id="Fill-3" fill="#FFFFFF" mask="url(#mask-2)"></path>
    </g>
    <polygon id="Fill-6" fill="#FFFFFF"
             points="31.654425 9.29573113 31.654425 12.3073147 29.0992904 12.3073147 29.0992904 20.3919441 25.8504058 20.3919441 25.8504058 12.3073147 23.5492904 12.3073147 23.5492904 9.29573113 25.8504058 9.29573113 25.8504058 5.1728066 29.0992904 5.1728066 29.0992904 9.29573113"></polygon>
    <path
      d="M41.6292692,13.9036044 C41.4990577,13.4392918 41.2706538,12.9986247 40.9376538,12.6439414 C40.4296154,12.0721489 39.7123846,11.7647567 38.9951538,11.7647567 C38.2523077,11.7647567 37.5606923,12.0721489 37.0270385,12.6439414 C36.7196538,12.9986247 36.49125,13.4392918 36.3354231,13.9036044 L41.6292692,13.9036044 Z M43.29,18.6391637 C42.2419038,19.9009764 40.6302692,20.700626 38.8649423,20.700626 C35.6438077,20.700626 33.0096923,18.0480249 33.0096923,14.804285 C33.0096923,11.5326004 35.6438077,8.90794407 38.8649423,8.90794407 C42.0903462,8.90794407 44.7201923,11.5326004 44.7201923,14.804285 C44.7201923,15.1654171 44.6967115,15.500754 44.6198654,15.8597365 L36.3866538,15.8597365 C36.5382115,16.2746085 36.7452692,16.6314414 37.0270385,16.9388336 C37.5606923,17.5342716 38.2523077,17.8438133 38.9951538,17.8438133 C39.6867692,17.8438133 40.37625,17.5342716 40.8842885,17.016219 L43.29,18.6391637 Z"
      id="Fill-8" fill="#FFFFFF"></path>
    <path
      d="M49.3275462,10.5553942 C50.1429692,9.47414757 51.6030462,9.0119845 53.0588538,9.0119845 C53.7013731,9.0119845 54.3417577,9.1130155 54.9287769,9.32152628 L53.6757577,12.1783389 C51.8058346,11.3507446 49.9145654,12.4857311 49.5815654,14.2655964 L49.5815654,20.3919441 L46.3860462,20.3919441 L46.3860462,9.29573113 L48.8643346,9.29573113 L49.3275462,10.5553942 Z"
      id="Fill-10" fill="#FFFFFF"></path>
    <path
      d="M76.4585077,14.8313699 C76.4585077,14.0295708 76.1767385,13.2621651 75.6132,12.6903726 C75.0774115,12.125029 74.3601808,11.8176368 73.5959885,11.8176368 C72.8275269,11.8176368 72.1102962,12.125029 71.5488923,12.6903726 C71.0088346,13.2621651 70.7035846,14.0295708 70.7035846,14.8313699 C70.7035846,15.6267204 71.0088346,16.3747796 71.5488923,16.9659185 C72.1102962,17.5355613 72.8275269,17.8429535 73.5959885,17.8429535 C74.3601808,17.8429535 75.0774115,17.5355613 75.6132,16.9659185 C76.1767385,16.3747796 76.4585077,15.6267204 76.4585077,14.8313699 L76.4585077,14.8313699 Z M79.6796423,9.29616105 L79.6796423,20.392374 L76.9686808,20.392374 L76.9686808,19.3089778 C75.9462,20.1860128 74.6163346,20.6997662 73.1861423,20.6997662 C69.9372577,20.6997662 67.3308923,18.0751098 67.3308923,14.8313699 C67.3308923,11.5618349 69.9372577,8.96082412 73.1861423,8.96082412 C74.6163346,8.96082412 75.9462,9.47457749 76.9686808,10.3473133 L77.2227,9.29616105 L79.6796423,9.29616105 Z"
      id="Fill-12" fill="#FFFFFF"></path>
    <path
      d="M90.8859462,12.6901577 C90.3458885,12.1011685 89.6286577,11.7916267 88.8666,11.7916267 C88.0960038,11.7916267 87.3552923,12.1011685 86.8195038,12.6901577 C86.2837154,13.2619501 85.9763308,14.0035606 85.9763308,14.8032102 C85.9763308,15.6265054 86.2837154,16.3745647 86.8195038,16.9399084 C87.3552923,17.5095512 88.0960038,17.819093 88.8666,17.819093 C89.6286577,17.819093 90.3458885,17.5095512 90.8859462,16.9399084 C91.4217346,16.3745647 91.7291192,15.6265054 91.7291192,14.8032102 C91.7291192,14.0035606 91.4217346,13.2619501 90.8859462,12.6901577 L90.8859462,12.6901577 Z M85.1822538,10.5835539 C86.23035,9.55174798 87.6861577,8.90686927 89.2700423,8.90686927 C92.4975808,8.90686927 95.1060808,11.5616199 95.1060808,14.8032102 C95.1060808,18.0748949 92.4975808,20.7017008 89.2700423,20.7017008 C87.6861577,20.7017008 86.23035,20.0826173 85.1822538,19.0250162 L85.1822538,28.4531429 L82.1895231,28.4531429 L82.1895231,9.29594609 L84.95385,9.29594609 L85.1822538,10.5835539 Z"
      id="Fill-14" fill="#FFFFFF"></path>
    <g id="Group-18" transform="translate(97.151288, 8.599125)">
      <mask id="mask-4" fill="white">
        <use xlink:href="#path-3"></use>
      </mask>
      <g id="Clip-17"></g>
      <path
        d="M9.0020674,4.09103235 C8.46414433,3.50204313 7.74691356,3.19250135 6.98272125,3.19250135 C6.21212509,3.19250135 5.47141356,3.50204313 4.93562509,4.09103235 C4.39983663,4.6628248 4.09245202,5.40443531 4.09245202,6.20408491 C4.09245202,7.02738005 4.39983663,7.77543935 4.93562509,8.34078302 C5.47141356,8.91042588 6.21212509,9.21996765 6.98272125,9.21996765 C7.74691356,9.21996765 8.46414433,8.91042588 9.0020674,8.34078302 C9.53785586,7.77543935 9.84524048,7.02738005 9.84524048,6.20408491 C9.84524048,5.40443531 9.53785586,4.6628248 9.0020674,4.09103235 L9.0020674,4.09103235 Z M3.29837509,1.98442857 C4.34647125,0.952622642 5.80441356,0.307743935 7.38829817,0.307743935 C10.613702,0.307743935 13.222202,2.96249461 13.222202,6.20408491 C13.222202,9.47576954 10.613702,12.1025755 7.38829817,12.1025755 C5.80441356,12.1025755 4.34647125,11.4834919 3.29837509,10.4258908 L3.29837509,19.8540175 L0.307778941,19.8540175 L0.307778941,0.696820755 L3.06997125,0.696820755 L3.29837509,1.98442857 Z"
        id="Fill-16" fill="#FFFFFF" mask="url(#mask-4)"></path>
    </g>
    <path
      d="M63.7759038,7.19450135 L64.7471538,6.28737197 L75.4437115,6.32391509 L75.5056154,3.2800876 L63.5581731,3.2800876 L63.5581731,3.28653639 L63.5560385,3.2822372 L57.7392115,8.70566712 L59.9549423,11.1153639 C61.3061538,12.7060647 61.2570577,12.6007345 61.2570577,12.6007345 C62.9071154,14.5504178 61.8440769,16.362527 60.9582115,17.138531 C59.9229231,18.0091173 58.1575962,18.4433356 56.6164038,16.654872 C56.1745385,16.1432682 55.9845577,15.5349326 55.8970385,14.9136995 L52.8381346,14.9136995 C52.9491346,16.250748 53.4465,17.5620013 54.3643846,18.6260512 C55.9205192,20.4338612 57.6260769,20.8659299 58.80225,20.9175202 C60.2708654,20.9691105 61.7330769,20.4424596 62.9156538,19.408504 C64.0960962,18.3723989 64.8709615,16.9794609 65.0630769,15.4747439 C65.2167692,14.2602224 65.0822885,12.4524124 63.5475,10.6317049 L61.9486731,8.85828841 L63.0864231,7.79423854 L63.7759038,7.19450135 Z"
      id="Fill-19" fill="#6CE6D6"></path>
  </symbol>
</svg>

<svg xmlns="http://www.w3.org/2000/svg" xmlns:xlink="http://www.w3.org/1999/xlink"><symbol id="logo"><title>logo</title><path d="M9.128 14.83c0-.8-.28-1.568-.845-2.14-.536-.565-1.253-.872-2.017-.872-.77 0-1.486.307-2.047.872-.54.572-.846 1.34-.846 2.14 0 .797.305 1.545.845 2.136.56.57 1.277.877 2.046.877.764 0 1.48-.307 2.017-.877.564-.59.845-1.34.845-2.135zm3.222-5.534v11.096H9.637V19.31c-1.023.876-2.353 1.39-3.78 1.39C2.606 20.7 0 18.075 0 14.83c0-3.268 2.607-5.87 5.856-5.87 1.428 0 2.758.515 3.78 1.387l.255-1.05h2.46z" id="Fill-1" fill="#FFF"/><g id="Group-5" transform="translate(13.354 .51)"><mask id="mask-2" fill="#fff"><use xlink:href="#path-1"/></mask><path d="M8.75 4.25c-.18-.23-.612-.616-1.203-.616-1.79 0-1.92 2.345-1.92 3.065v2.086h3.3V11.8h-3.3v8.082H2.565V11.8h-2.1V8.786h2.1V6.7c0-1.805.455-3.322 1.354-4.43C4.812 1.163 6.116.544 7.548.544c1.328 0 2.584.593 3.53 1.676L8.75 4.25z" id="Fill-3" fill="#FFF" mask="url(#mask-2)"/></g><path id="Fill-6" fill="#FFF" d="M31.654 9.296v3.01H29.1v8.086h-3.25v-8.085h-2.3v-3.01h2.3V5.172h3.25v4.123z"/><path d="M41.63 13.904c-.13-.465-.36-.905-.692-1.26-.508-.572-1.226-.88-1.943-.88-.743 0-1.434.308-1.968.88-.307.355-.536.795-.692 1.26h5.294zm1.66 4.735c-1.048 1.26-2.66 2.06-4.425 2.06-3.22 0-5.855-2.652-5.855-5.896 0-3.27 2.634-5.896 5.855-5.896 3.225 0 5.855 2.625 5.855 5.896 0 .36-.023.697-.1 1.056h-8.233c.15.415.358.77.64 1.08.534.594 1.225.904 1.968.904.692 0 1.38-.31 1.89-.828l2.405 1.623z" id="Fill-8" fill="#FFF"/><path d="M49.328 10.555c.815-1.08 2.275-1.543 3.73-1.543.643 0 1.284.1 1.87.31l-1.252 2.856c-1.87-.827-3.76.308-4.094 2.088v6.126h-3.196V9.296h2.478l.464 1.26z" id="Fill-10" fill="#FFF"/><path d="M76.46 14.83c0-.8-.283-1.568-.847-2.14-.536-.565-1.253-.872-2.017-.872-.768 0-1.486.307-2.047.872-.54.572-.846 1.34-.846 2.14 0 .797.305 1.545.845 2.136.56.57 1.278.877 2.046.877.764 0 1.48-.307 2.017-.877.564-.59.846-1.34.846-2.135zm3.22-5.534v11.096h-2.71V19.31c-1.024.876-2.354 1.39-3.784 1.39-3.25 0-5.855-2.625-5.855-5.87 0-3.268 2.607-5.87 5.856-5.87 1.43 0 2.76.515 3.783 1.387l.253-1.05h2.457z" id="Fill-12" fill="#FFF"/><path d="M90.886 12.69c-.54-.59-1.257-.898-2.02-.898-.77 0-1.51.31-2.046.898-.536.572-.844 1.314-.844 2.113 0 .824.308 1.572.844 2.137.535.57 1.276.88 2.047.88.762 0 1.48-.31 2.02-.88.535-.565.842-1.313.842-2.137 0-.8-.308-1.54-.844-2.113zm-5.704-2.106c1.048-1.032 2.504-1.677 4.088-1.677 3.228 0 5.836 2.655 5.836 5.896 0 3.272-2.608 5.9-5.836 5.9-1.584 0-3.04-.62-4.088-1.678v9.428H82.19V9.296h2.764l.228 1.288z" id="Fill-14" fill="#FFF"/><g id="Group-18" transform="translate(97.15 8.6)"><mask id="mask-4" fill="#fff"><use xlink:href="#path-3"/></mask><path d="M9.002 4.09c-.538-.588-1.255-.897-2.02-.897-.77 0-1.51.31-2.046.898-.536.573-.844 1.314-.844 2.114 0 .823.308 1.57.844 2.137.535.57 1.276.88 2.047.88.764 0 1.48-.31 2.02-.88.535-.565.842-1.313.842-2.136 0-.8-.307-1.54-.843-2.113zM3.298 1.985C4.346.954 5.804.308 7.388.308c3.226 0 5.834 2.654 5.834 5.896 0 3.272-2.608 5.9-5.834 5.9-1.584 0-3.042-.62-4.09-1.678v9.428H.308V.697H3.07l.228 1.287z" id="Fill-16" fill="#FFF" mask="url(#mask-4)"/></g><path d="M63.776 7.195l.97-.908 10.698.037.062-3.044H63.558v.007l-.002-.005-5.817 5.424 2.215 2.41c1.35 1.59 1.302 1.485 1.302 1.485 1.65 1.95.587 3.763-.3 4.54-1.034.87-2.8 1.303-4.34-.485-.442-.512-.632-1.12-.72-1.74h-3.06c.112 1.336.61 2.647 1.527 3.71 1.557 1.81 3.262 2.24 4.438 2.293 1.47.05 2.93-.476 4.114-1.51 1.18-1.036 1.955-2.43 2.147-3.933.154-1.215.02-3.023-1.516-4.843L61.95 8.858l1.136-1.064.69-.6z" id="Fill-19" fill="#6CE6D6"/></symbol></svg>
